X:208
T:Steirische Jodler und Taenze Nr. 1 - 48 (6.)
C:traditionell
A:Salzkammergut
S:MIDI erhalten von Christian Amon. Nach einer kopie im besitz von Johann Stoeckl eines manuscriptes. Stoeckl(zitiert von Amon): "diese sammlung wurde 1935 im hause der familie Hohenlohe-Schillingfuerst gefunden. Sie wurde von einem der beiden brueder Steinegger 1866 verfasst. Die originale sind im Ausseer Kammerhofmuseum".
M:3/4
L:1/8
K:G
V:1
g3 d d2 | b3 a g2 | f3 d d2 | c'6 |\
f3 d d2 | c'3 b a2 | g3 d d2 | b6 |
V:2
b3 g g2 | d'3 c' b2 | a3 g f2 | e'6 |\
a3 g f2 | e'3 d' c'2 | b3 g g2 | d'6 |
V:1
g3 d d2 | b3 a g2 | f3 d d2 | c'6 |\
f3 d d2 | c'3 b a2 | b4 z2 |*
V:2
b3 g g2 | d'3 c ' b2 | a3 f f2 | e'6 |\
a3 g f2 | e'3 d ' c'2 | b4 z2 |*
